X: 12
T: Hardiman The Fiddler
Z: JACKB
S: https://thesession.org/tunes/48#setting54150
R: slip jig
M: 9/8
L: 1/8
K: Ador
A2G FDE F2G|Ac/A/A AGA cAG|Ac/A/G FDE F2G|Add ded cAG|
Ac/A/G FDE F2G|Ac/A/A AGA cAG|Ac/A/G FDE F2G|Add ded cAG||
Add d2e =f3|Add ded cAG|Add d2e f2g|agf ged cAG|
Add d2e =f2e|Add ded cAG|dcA B/c/de f2g|agf ged cAG||

%-------------------- TUNE SEPARATOR --------------------%

